public/icons/jest-icon.svg

<svg width="129" height="128" viewBox="0 0 129 128" fill="none" xmlns="http://www.w3.org/2000/svg">
<g clip-path="url(#clip0_67_42)">
<path d="M98.7998 0H30.7998C14.2313 0 0.799805 13.4315 0.799805 30V98C0.799805 114.569 14.2313 128 30.7998 128H98.7998C115.368 128 128.8 114.569 128.8 98V30C128.8 13.4315 115.368 0 98.7998 0Z" fill="#99424F"/>
<path d="M107.476 63.2475C107.476 57.225 103.336 52.1585 97.7779 50.711L110.227 14H48.5304L61.0089 50.827C55.6234 52.3905 51.6574 57.37 51.6574 63.276C51.6574 67.619 53.8284 71.4695 57.1289 73.8435C55.8264 75.6965 54.3209 77.405 52.6124 79.026C49.3989 82.037 45.8379 84.353 41.9874 85.8875C38.5129 83.5425 37.0074 79.4025 38.3684 75.6965C43.6664 74.0755 47.5169 69.1245 47.5169 63.305C47.5169 56.154 41.6979 50.3635 34.5754 50.3635C27.4244 50.3635 21.6054 56.183 21.6054 63.334C21.6054 66.866 23.0529 70.109 25.3689 72.425C25.1664 72.8305 24.9639 73.2355 24.7609 73.67C22.8209 77.6655 20.6209 82.182 19.7809 87.2485C18.1019 97.3815 20.8524 105.517 27.4824 110.12C31.2174 112.697 35.3284 114 39.7579 114C47.3724 114 55.1024 110.179 62.5719 106.473C67.8994 103.838 73.3999 101.088 78.8139 99.7555C80.8119 99.2635 82.8964 98.974 85.0969 98.6555C89.5554 98.0185 94.1589 97.3525 98.2989 94.9495C103.134 92.1415 106.434 87.451 107.39 82.066C108.113 77.926 107.39 73.757 105.537 70.109C106.782 68.111 107.476 65.766 107.476 63.2475ZM101.831 63.2475C101.831 67.2715 98.5594 70.543 94.5349 70.543C90.5104 70.543 87.2394 67.2715 87.2394 63.2475C87.2394 61.9445 87.5864 60.6995 88.1944 59.6285C88.4313 59.22 88.7026 58.8324 89.0054 58.47C89.2949 58.123 89.6424 57.8045 90.0184 57.515L90.0474 57.486C90.2789 57.312 90.5399 57.1385 90.8004 56.9645C90.8004 56.9645 90.8294 56.9645 90.8294 56.9355C90.9449 56.878 91.0609 56.791 91.1764 56.733C91.2054 56.733 91.2344 56.704 91.2634 56.704C91.3794 56.646 91.5239 56.5885 91.6689 56.5305C91.8134 56.4725 91.9584 56.4145 92.0739 56.3565C92.1029 56.3565 92.1319 56.3275 92.1609 56.3275C92.2769 56.299 92.3924 56.241 92.5084 56.212C92.5374 56.212 92.5954 56.183 92.6244 56.183C92.7689 56.154 92.8849 56.125 93.0294 56.096H93.0584L93.4929 56.0095C93.5219 56.0095 93.5794 56.0095 93.6084 55.9805C93.7244 55.9805 93.8404 55.9515 93.9559 55.9515H94.1009C94.2454 55.9515 94.3904 55.9225 94.5639 55.9225H94.9404C95.0564 55.9225 95.1429 55.9225 95.2589 55.9515H95.3169C95.5484 55.9805 95.7799 56.0095 96.0114 56.067C99.3119 56.762 101.831 59.715 101.831 63.2475ZM56.6079 19.7905H102.149L91.6979 50.624C91.2634 50.711 90.8294 50.856 90.3949 51.0005L79.3934 28.563L68.3624 50.856C67.9284 50.711 67.4649 50.624 67.0019 50.5375L56.6079 19.7905ZM77.3084 60.7285C76.7584 58.007 75.3689 55.575 73.3999 53.78L79.3934 41.678L85.4439 54.0405C83.6489 55.8355 82.3464 58.123 81.8249 60.7285H77.3084ZM62.8039 56.154C62.9484 56.125 63.0644 56.096 63.2089 56.067H63.2959C63.4119 56.038 63.5274 56.038 63.6434 56.0095H63.7589C63.8749 56.0095 63.9619 55.9805 64.0774 55.9805H65.2069C65.3224 55.9805 65.4094 56.0095 65.4964 56.0095C65.5544 56.0095 65.5829 56.0095 65.6409 56.038C65.7569 56.067 65.8439 56.067 65.9594 56.096C65.9884 56.096 66.0174 56.096 66.0754 56.125C66.2199 56.154 66.3649 56.183 66.4804 56.212H66.5094C66.6254 56.241 66.7414 56.27 66.8569 56.3275C66.8859 56.3275 66.9149 56.3565 66.9729 56.3565C67.0599 56.3855 67.1754 56.4145 67.2624 56.4725C67.2914 56.4725 67.3204 56.5015 67.3494 56.5015C67.4649 56.5595 67.5809 56.5885 67.6964 56.646H67.7254C67.8704 56.704 67.9859 56.762 68.1019 56.849H68.1309C68.2469 56.907 68.3624 56.9935 68.4784 57.0515C68.5074 57.0515 68.5074 57.0805 68.5364 57.0805C68.6519 57.1385 68.7389 57.225 68.8549 57.283L68.8834 57.312C69.2309 57.5725 69.5494 57.862 69.8679 58.1515L69.8969 58.1805C70.1864 58.499 70.4759 58.8465 70.7074 59.223C71.4843 60.4106 71.8969 61.7994 71.8944 63.2185C71.8944 67.2425 68.6229 70.514 64.5989 70.514C60.5744 70.514 57.3029 67.2425 57.3029 63.2185C57.2739 59.831 59.6189 56.9645 62.8039 56.154ZM34.3149 55.9515C38.3394 55.9515 41.6109 59.223 41.6109 63.2475C41.6109 67.272 38.3394 70.543 34.3149 70.543C30.2904 70.543 27.0189 67.2715 27.0189 63.2475C27.0189 59.223 30.2909 55.9515 34.3149 55.9515ZM101.657 81.0525C101.02 84.7585 98.7329 88.001 95.3744 89.941C92.2189 91.765 88.3394 92.344 84.2569 92.923C82.0279 93.2415 79.6829 93.589 77.4244 94.139C71.4024 95.6155 65.6119 98.5105 59.9954 101.29C52.8154 104.851 46.0404 108.21 39.7579 108.21C36.4864 108.21 33.5624 107.283 30.7829 105.343C24.4134 100.942 24.7319 92.6915 25.4849 88.175C26.1799 83.948 28.1194 79.9815 29.9724 76.189C30.0879 75.957 30.1749 75.7545 30.2909 75.523C30.9394 75.7575 31.608 75.9319 32.2884 76.044C31.1884 82.182 34.3149 88.5225 40.3949 91.649L41.4949 92.228L42.6819 91.794C47.7489 89.999 52.4389 87.0745 56.5789 83.166C58.9244 80.966 60.9219 78.592 62.6009 76.015C63.2669 76.131 63.9329 76.16 64.5989 76.16C70.6209 76.16 75.6874 72.0195 77.1349 66.461H81.9989C83.4464 72.0485 88.5129 76.16 94.5349 76.16C96.9379 76.16 99.1674 75.494 101.078 74.365C101.831 76.536 102.062 78.7945 101.657 81.0525Z" fill="white"/>
</g>
<defs>
<clipPath id="clip0_67_42">
<rect width="128" height="128" fill="white" transform="translate(0.799805)"/>
</clipPath>
</defs>
</svg>

<svg xmlns="http://www.w3.org/2000/svg" width="129" height="128" fill="none"><g clip-path="url(#a)"><path fill="#99424F" d="M98.8 0h-68C14.23 0 .8 13.431.8 30v68c0 16.569 13.431 30 30 30h68c16.568 0 30-13.431 30-30V30c0-16.569-13.432-30-30-30Z"/><path fill="#fff" d="M107.476 63.248c0-6.023-4.14-11.09-9.698-12.537L110.227 14H48.53L61.01 50.827c-5.386 1.564-9.352 6.543-9.352 12.449 0 4.343 2.171 8.193 5.472 10.568-1.303 1.853-2.808 3.561-4.517 5.182-3.213 3.011-6.774 5.327-10.625 6.862-3.474-2.346-4.98-6.486-3.619-10.192 5.298-1.62 9.149-6.572 9.149-12.391 0-7.151-5.82-12.941-12.942-12.941-7.15 0-12.97 5.819-12.97 12.97 0 3.532 1.448 6.775 3.764 9.091-.203.406-.405.81-.608 1.245-1.94 3.995-4.14 8.512-4.98 13.579-1.68 10.133 1.071 18.268 7.701 22.871 3.735 2.577 7.846 3.88 12.276 3.88 7.614 0 15.344-3.821 22.814-7.527 5.327-2.635 10.828-5.385 16.242-6.718 1.998-.492 4.082-.781 6.283-1.1 4.458-.636 9.062-1.302 13.202-3.706 4.835-2.808 8.135-7.498 9.091-12.883.723-4.14 0-8.309-1.853-11.957 1.245-1.998 1.939-4.343 1.939-6.861Zm-5.645 0a7.302 7.302 0 0 1-7.296 7.295 7.302 7.302 0 0 1-6.34-10.915c.236-.408.508-.796.81-1.158.29-.347.637-.666 1.013-.955l.03-.029c.23-.174.492-.347.752-.521 0 0 .03 0 .03-.03.115-.057.23-.144.346-.202.03 0 .058-.029.087-.029.116-.058.26-.115.406-.173.144-.059.29-.117.405-.175.029 0 .058-.029.087-.029.116-.028.231-.086.347-.115.03 0 .087-.029.116-.029.145-.029.26-.058.405-.087h.03l.434-.086c.029 0 .086 0 .115-.03.116 0 .232-.028.348-.028h.145c.144 0 .29-.03.463-.03h.376c.116 0 .203 0 .319.03h.058c.231.029.463.058.694.115 3.3.695 5.82 3.648 5.82 7.18ZM56.608 19.79h45.541L91.698 50.623c-.435.087-.869.232-1.303.377L79.393 28.563l-11.03 22.293c-.435-.145-.898-.232-1.361-.319L56.608 19.792Zm20.7 40.938c-.55-2.722-1.94-5.154-3.908-6.949l5.993-12.102 6.05 12.363c-1.794 1.795-3.097 4.082-3.618 6.688h-4.517Zm-14.504-4.575c.144-.029.26-.058.405-.087h.087c.116-.029.231-.029.347-.057h.116c.116 0 .203-.03.318-.03h1.13c.115 0 .202.03.29.03.057 0 .086 0 .144.028.116.029.203.029.318.058a.22.22 0 0 1 .116.029c.145.029.29.058.405.087h.03c.115.029.231.058.347.115.029 0 .058.03.116.03.087.029.202.057.29.115.028 0 .057.03.086.03.116.057.232.087.347.144h.03c.144.058.26.116.376.203h.029c.116.058.231.145.347.203.03 0 .03.029.058.029.116.057.203.144.319.202l.028.029c.348.26.666.55.985.84l.029.029c.29.318.579.666.81 1.042a7.302 7.302 0 0 1-6.109 11.291 7.302 7.302 0 0 1-7.295-7.296c-.03-3.387 2.316-6.254 5.5-7.064Zm-28.49-.203a7.302 7.302 0 0 1 7.297 7.297 7.302 7.302 0 0 1-7.296 7.295 7.302 7.302 0 0 1-7.296-7.296 7.303 7.303 0 0 1 7.296-7.295Zm67.343 25.101c-.637 3.706-2.924 6.949-6.283 8.889-3.155 1.824-7.035 2.403-11.117 2.982-2.23.319-4.574.666-6.833 1.216-6.022 1.477-11.812 4.371-17.429 7.151-7.18 3.561-13.955 6.92-20.237 6.92-3.272 0-6.196-.927-8.975-2.867-6.37-4.401-6.051-12.651-5.298-17.168.695-4.227 2.634-8.194 4.487-11.986.116-.232.203-.434.319-.666.648.234 1.317.409 1.997.521-1.1 6.138 2.027 12.478 8.107 15.605l1.1.579 1.187-.434c5.067-1.795 9.757-4.72 13.897-8.628 2.345-2.2 4.343-4.574 6.022-7.151.666.116 1.332.145 1.998.145 6.022 0 11.088-4.14 12.536-9.699h4.864c1.447 5.588 6.514 9.699 12.536 9.699 2.403 0 4.632-.666 6.543-1.795.753 2.171.984 4.43.579 6.688Z"/></g><defs><clipPath id="a"><path fill="#fff" d="M.8 0h128v128H.8z"/></clipPath></defs></svg>
